!!!ONB: MCCC : IWM0408_03 : Extracted Monophonic Melody
!!!COM: Mozart, Wolfgang Amadeus
!!!OPR: Piano Sonata No.8
!!!OMV: 3
!!!SCT: K.310 ; K⁶.300d ; Op.4 No.3
!!!ODT: 1778///
**kern
*thru
*staff1
*>A
*clefG2
*k[]
*a:
*M2/4
*MM160
=1
4.cc
8b
=2
4.a
8g#
=3
4.a
8b
=4
4cc
4b
=5
4.dd
8cc
=6
4.ff
8ee
=7
4.dd
8cc
=8
8cc
8b
8g#
8e
=9
4.cc
8b
=10
4.a
8g#
=11
4.a
8b
=12
4cc
4b
=13
4.ff
8ee
=14
4.dd
8cc
=15
8cc
8b
8a
8g#
=16
8a
8cc#
8dd
8ee
=17
4.ff
8ee
=18
4.gg#
8aa
=19
8ee
8dd
8cc
8b
=20
8a
8cc
8dd
8ee
=21
4.ff
8aa
=22
8ff
8ee
8dd#
8ee
=23
4.aa
8ccc
=24
8aa
8gg
8ff#
8gg
=25
4.ccc
8bb
=26
8bb
8aa
8aa
8gg
=27
8gg
8ff
8ff
8ee
=28
4ee
4dd
=29
4.ee-
8dd
=30
4.cc
8dd
=31
4.ee-
8ff
=32
4ee-
4dd
=33
4.ff
8ee
=34
4.dd
8ee
=35
4.ff
8gg
=36
4ff
4ee
=37
4.ccc
8bb
=38
4.aa
8gg
=39
4.ff
8ee
=40
4.dd
8cc#
=41
8dd
8a
8ee
8a
=42
8ff
8aa
8ff
8dd
=43
4cc
4dd
=44
8dd
8dd#
8ee
8gg
=45
4.ccc
8bb
=46
4.aa
8gg
=47
4.ff
8ee
=48
4.dd
8cc#
=49
8dd
8a
8ee
8a
=50
8ff
8gg
8aa
8ff
=51
4ee
4dd
=52
2cc#
=53
8dd
8a
8ee
8a
=54
8ff
8gg
8aa
8ff
=55
4ee
4dd
=56
2cc#
=57
8dd
8ee
8ff
8dd
=58
2dd#
=59
8ee
8ff#
8gg
8ee
=60
4.ccc
8bb
=61
4.aa
8gg
=62
4.ff#
8ee
=63
8ee
8dd#
8cc#
8b
=64
8r
4.b
=65
8r
4.b
=66
8r
4.b
=67
8r
4.b
=68
8r
4.b
=69
8r
4.b
=70
8r
4.b
=71
8r
4.b
=72
8b
8bb
8eee
8ddd
=73
8g
8gg
8ccc
8bb
=74
8e
8ee
8aa
8gg
=75
8c
8cc
8ff
8ee
=76
8dd#
8ff#
8b
8aa
=77
8gg
8ee
8ccc
8aa
=78
8gg
8bb
8dd#
8ff#
=79
8ee
8b
8g
8e
=80
8b
8bb
8eee
8ddd#
=81
8g
8gg
8ccc
8bb
=82
8e
8ee
8aa
8gg
=83
8c
8cc
8ff
8ee
=84
8dd#
8ff#
8b
8aa
=85
8gg
8ee
8ccc
8aa
=86
8gg
8bb
8dd#
8ff#
=87
4.ee
8ee[
=88
2ee]
=89
[2ff
=90
2ff]
=91
[2ee
=92
2ee]
=93
[2dd
=94
2dd]
=95
8cc
8a
4ee[
=96
8ee]
8ff
4dd[
=97
8dd]
8ee
4cc[
=98
8cc]
8dd
8b
8a
=99
8g#
8b
8ee
8g#
=100
8a
8ee
8dd#
8a
=101
8g#
8b
8ee
8g#
=102
8a
8ee
8dd#
8a
=103
8g#
8b
8ee
8g#
=104
8a
8ee
8dd#
8a
=105
8g#
8b
8ee
8dd#
=106
8dd
8cc#
8dd
8b
=107
4.cc
8b
=108
4.a
8g#
=109
4.a
8b
=110
4cc
4b
=111
4.dd
8cc
=112
4.ff
8ee
=113
4.dd
8cc
=114
8cc
8b
8g#
8e
=115
4.cc
8b
=116
4.a
8g#
=117
4.a
8b
=118
4cc
4b
=119
4.ff
8ee
=120
4.dd
8cc
=121
8cc
8b
8a
8g#
=122
8a
8cc#
8dd
8ee
=123
4.ff
8ee
=124
4.gg#
8aa
=125
4.bb
8ccc
=126
2ddd
=127
4.ccc
8bb
=128
4.aa
8gg
=129
4.ff
8ee
=130
4.dd
8cc
=131
4b
8dd
8ff
=132
8ff
8ee
8dd
8cc
=133
8cc
8b
8a
8g#
=134
8a
8cc
8ee
8gg#
=135
4.ccc
8bb
=136
4.aa
8gg
=137
4.ff
8ee
=138
4.dd
8cc
=139
4b
8dd
8ff
=140
8ff
8ee
8dd
8cc
=141
8cc
8b
8a
8g#
=142
8a
8e
8a
8b
=143
*>B
*k[f#c#g#]
4.cc#
8ee
=144
8ee
8dd
8dd
8cc#
=145
8cc#
8b
8b
8dd
=146
8dd
8cc#
4cc#
=147
4.aa
8gg#
=148
8gg#
8ff#
8ff#
8ee
=149
8ee
8dd
8dd
8cc#
=150
8cc#
8b
4a
=151
4.cc#
8ee
=152
8ee
8dd
8dd
8cc#
=153
8cc#
8b
8b
8dd
=154
8dd
8cc#
4cc#
=155
8cc#
4b
8b
=156
8b
8ee
8cc#
8ff#
=157
4ee
4dd#
=158
4ee
4r
=159
*>B
4.cc#
8ee
=160
8ee
8dd
8dd
8cc#
=161
8cc#
8b
8b
8dd
=162
8dd
8cc#
4cc#
=163
4.aa
8gg#
=164
8gg#
8ff#
8ff#
8ee
=165
8ee
8dd
8dd
8cc#
=166
8cc#
8b
4a
=167
4.cc#
8ee
=168
8ee
8dd
8dd
8cc#
=169
8cc#
8b
8b
8dd
=170
8dd
8cc#
4cc#
=171
8cc#
4b
8b
=172
8b
8ee
8cc#
8ff#
=173
4ee
4dd#
=174
4ee
4r
=175
*>C
8ee
8dd#
8ee
8ff#
=176
8ee
8dd
8cc#
8b
=177
8a#
8b
8cc#
8a#
=178
8b
8a#
8b
8cc#
=179
8dd
8cc#
8dd
8ee
=180
8dd
8cc
8b
8a
=181
8g#
8a
8b
8g#
=182
8a
8cc#
8ee
8cc#
=183
4.aa
8gg#
=184
8gg#
8ff#
8ff#
8ee
=185
8ee
8dd
8dd
8cc#
=186
8cc#
8b
4a
=187
4.b
8cc#
=188
8b
8a
4a
=189
4.b
8cc#
=190
*>C1
4a
4r
=191
*>C
8ee
8dd#
8ee
8ff#
=192
8ee
8dd
8cc#
8b
=193
8a#
8b
8cc#
8a#
=194
8b
8a#
8b
8cc#
=195
8dd
8cc#
8dd
8ee
=196
8dd
8cc
8b
8a
=197
8g#
8a
8b
8g#
=198
8a
8cc#
8ee
8cc#
=199
4.aa
8gg#
=200
8gg#
8ff#
8ff#
8ee
=201
8ee
8dd
8dd
8cc#
=202
8cc#
8b
4a
=203
4.b
8cc#
=204
8b
8a
4a
=205
4.b
8cc#
=206
*>C2
8a
8e
8a
8b
=207
*k[]
*>D
4.cc
8b
=208
4.a
8g#
=209
4.a
8b
=210
4cc
4b
=211
4.dd
8cc
=212
4.ff
8ee
=213
4.dd
8cc
=214
8cc
8b
8g#
8e
=215
4.cc
8b
=216
4.a
8g#
=217
4.a
8b
=218
4cc
4b
=219
4.ff
8ee
=220
4.dd
8cc
=221
8cc
8b
8a
8g#
=222
8a
8cc#
8dd
8ee
=223
4.ff
8ee
=224
4.gg#
8aa
=225
8ee
8dd
8cc
8b
=226
8a
8cc
8ee
8aa
=227
4.bb-
8gg
=228
8gg
8ff
8ee
8dd
=229
4.ccc
8aa
=230
8aa
8gg#
8ff#
8ee
=231
2ddd
=232
2ddd
=233
2ddd
=234
2ddd
=235
8r
4.e
=236
8r
4.e
=237
8r
4.e
=238
8r
4.e
=239
4.dd
8cc
=240
4.b
8cc
=241
4.dd
8ee
=242
4dd
4cc
=243
4.aa
8gg
=244
4.ff
8ee
=245
4.dd
8cc
=246
4.b
8a
=247
8g#
8b
8e
8dd
=248
8cc
8a
8ff
8dd
=249
4cc
4b
=250
4a
4r
=251
8e
8ee
8aa
8gg
=252
8c
8cc
8ff
8ee
=253
8A
8a
8dd
8cc
=254
8F
8f
8b
8a
=255
8g#
8b
8e
8dd
=256
8cc
8a
8ff
8dd
=257
4cc
4b
=258
2cc#
=259
8dd
8ee
8ff
8dd
=260
2dd#
=261
8ee
8ff#
8gg#
8ee
=262
2gg#
=263
8aa
8ee
8ff
8dd
=264
8cc
8a
8ee
8g#
=265
4.ccc
8bb
=266
4.aa
8gg
=267
4.ff
8ee
=268
4.dd
8cc
=269
4b
4ff
=270
4ee
4g#
=271
4.ccc
8bb
=272
4.aa
8gg
=273
4.ff
8ee
=274
4.dd
8cc
=275
4b
4ff
=276
4ee
4g#
=277
8a
8e
8cc
8a
=278
8ee
8cc
8b
8g#
=279
8a
8ee
8ee
8ee
=280
8ee
8ee
8ee
8ee
=281
4ee
4aa
=282
4ccc
4bb
=283
4aa
4a
=284
4a
4r
==
*-
